rospo-icon-theme-classic-common/32x32/apps/ltris.svg

<svg height="32" viewBox="0 0 32 32" width="32" xmlns="http://www.w3.org/2000/svg"><path d="m23.58333 2.0000035c-.323165 0-.583332.260178-.583332.5833498v5.8333138c0 .3231725.260167.5833275.583332.5833275h5.833326c.323165 0 .583333-.260155.583333-.5833275v-5.8333138c0-.3231718-.260168-.5833498-.583333-.5833498z" fill="#ff4e40"/><g fill="#ffc34e"><path d="m2.5833439 23.000005c-.3231661 0-.5833326.260179-.5833326.58335v5.833314c0 .323173.2601665.583328.5833326.583328h5.833326c.3231648 0 .5833317-.260155.5833317-.583328v-5.833314c0-.323171-.2601669-.58335-.5833317-.58335z"/><path d="m9.5833395 23.000005c-.3231662 0-.5833324.260179-.5833324.58335v5.833314c0 .323173.2601662.583328.5833324.583328h5.8333265c.323165 0 .583332-.260155.583332-.583328v-5.833314c0-.323171-.260167-.58335-.583332-.58335z"/><path d="m16.583336 23.000005c-.323167 0-.583333.260179-.583333.58335v5.833314c0 .323173.260166.583328.583333.583328h5.833326c.323165 0 .583332-.260155.583332-.583328v-5.833314c0-.323171-.260167-.58335-.583332-.58335z"/><path d="m2.583343 16.000002c-.3231661 0-.5833326.260179-.5833326.58335v5.833314c0 .323173.2601665.583328.5833326.583328h5.8333262c.3231648 0 .5833317-.260155.5833317-.583328v-5.833314c0-.323171-.2601669-.58335-.5833317-.58335z"/></g><path d="m9.5833388 16.000002c-.3231662 0-.583333.260179-.583333.58335v5.833314c0 .323173.2601661.583328.583333.583328h5.8333252c.323165 0 .583333-.260155.583333-.583328v-5.833314c0-.323171-.260167-.58335-.583333-.58335z" fill="#3b70df"/><path d="m16.583335 16.000002c-.323167 0-.583333.260179-.583333.58335v5.833314c0 .323173.260167.583328.583333.583328h5.833326c.323165 0 .583332-.260155.583332-.583328v-5.833314c0-.323171-.260167-.58335-.583332-.58335z" fill="#3b70df"/><path d="m23.58333 16.000002c-.323165 0-.583332.260179-.583332.58335v5.833314c0 .323173.260167.583328.583332.583328h5.833326c.323165 0 .583333-.260155.583333-.583328v-5.833314c0-.323171-.260168-.58335-.583333-.58335z" fill="#ff4e40"/><path d="m2.5833439 9.0000064c-.3231661 0-.5833326.2601781-.5833326.5833499v5.8333137c0 .323173.2601665.583328.5833326.583328h5.833326c.3231648 0 .5833317-.260155.5833317-.583328v-5.8333137c0-.3231718-.2601669-.5833499-.5833317-.5833499z" fill="#3b70df"/><path d="m9.5833395 9.0000064c-.3231662 0-.5833324.2601781-.5833324.5833499v5.8333137c0 .323173.2601662.583328.5833324.583328h5.8333265c.323165 0 .583332-.260155.583332-.583328v-5.8333137c0-.3231718-.260167-.5833499-.583332-.5833499z" fill="#3b70df"/><path d="m23.583332 9.0000064c-.323167 0-.583333.2601781-.583333.5833499v5.8333137c0 .323173.260166.583328.583333.583328h5.833326c.323165 0 .583332-.260155.583332-.583328v-5.8333137c0-.3231718-.260167-.5833499-.583332-.5833499z" fill="#ff4e40"/><path d="m16.583335 2.0000035c-.323167 0-.583333.260178-.583333.5833498v5.8333138c0 .3231725.260167.5833275.583333.5833275h5.833326c.323165 0 .583332-.260155.583332-.5833275v-5.8333138c0-.3231718-.260167-.5833498-.583332-.5833498z" fill="#ff4e40"/><path d="m23.583984 2c-.323165 0-.583984.2608126-.583984.5839844v1c0-.3231718.260819-.5839844.583984-.5839844h5.832032c.323165 0 .583984.2608126.583984.5839844v-1c0-.3231718-.260819-.5839844-.583984-.5839844z" fill="#fff" opacity=".2"/><path d="m2.5839844 23c-.3231661 0-.5839844.260813-.5839844.583984v1c0-.323171.2608183-.583984.5839844-.583984h5.8320312c.3231648 0 .5839844.260813.5839844.583984v-1c0-.323171-.2608196-.583984-.5839844-.583984z" opacity=".2"/><path d="m9.5839844 23c-.3231662 0-.5839844.260813-.5839844.583984v1c0-.323171.2608182-.583984.5839844-.583984h5.8320316c.323165 0 .583984.260813.583984.583984v-1c0-.323171-.260819-.583984-.583984-.583984z" opacity=".2"/><path d="m16.583984 23c-.323167 0-.583984.260813-.583984.583984v1c0-.323171.260817-.583984.583984-.583984h5.832032c.323165 0 .583984.260813.583984.583984v-1c0-.323171-.260819-.583984-.583984-.583984z" opacity=".2"/><path d="m2.5839844 16c-.3231661 0-.5839844.260813-.5839844.583984v1c0-.323171.2608183-.583984.5839844-.583984h5.8320312c.3231648 0 .5839844.260813.5839844.583984v-1c0-.323171-.2608196-.583984-.5839844-.583984z" opacity=".2"/><path d="m9.5839844 16c-.3231662 0-.5839844.260813-.5839844.583984v1c0-.323171.2608182-.583984.5839844-.583984h5.8320316c.323166 0 .583984.260813.583984.583984v-1c0-.323171-.260818-.583984-.583984-.583984z" opacity=".2"/><path d="m16.583984 16c-.323167 0-.583984.260813-.583984.583984v1c0-.323171.260817-.583984.583984-.583984h5.832032c.323165 0 .583984.260813.583984.583984v-1c0-.323171-.260819-.583984-.583984-.583984z" fill="#fff" opacity=".2"/><path d="m23.583984 16c-.323165 0-.583984.260813-.583984.583984v1c0-.323171.260819-.583984.583984-.583984h5.832032c.323165 0 .583984.260813.583984.583984v-1c0-.323171-.260819-.583984-.583984-.583984z" opacity=".2"/><path d="m2.5839844 9c-.3231661 0-.5839844.2608126-.5839844.5839844v.9999996c0-.323171.2608183-.583984.5839844-.583984h5.8320312c.3231648 0 .5839844.260813.5839844.583984v-.9999996c0-.3231718-.2608196-.5839844-.5839844-.5839844z" fill="#fff" opacity=".2"/><path d="m9.5839844 9c-.3231662 0-.5839844.2608126-.5839844.5839844v.9999996c0-.323171.2608182-.583984.5839844-.583984h5.8320316c.323165 0 .583984.260813.583984.583984v-.9999996c0-.3231718-.260819-.5839844-.583984-.5839844z" fill="#fff" opacity=".2"/><path d="m23.583984 9c-.323167 0-.583984.2608126-.583984.5839844v.9999996c0-.323171.260817-.583984.583984-.583984h5.832032c.323165 0 .583984.260813.583984.583984v-.9999996c0-.3231718-.260819-.5839844-.583984-.5839844z" opacity=".2"/><path d="m16.583984 2c-.323167 0-.583984.2608126-.583984.5839844v1c0-.3231718.260817-.5839844.583984-.5839844h5.832032c.323165 0 .583984.2608126.583984.5839844v-1c0-.3231718-.260819-.5839844-.583984-.5839844z" fill="#fff" opacity=".2"/><path d="m16 8.4160156v1c0 .3231725.260818.5839844.583984.5839844h5.832032c.323165 0 .583984-.2608119.583984-.5839844v-1c0 .323172-.260819.5839844-.583984.5839844h-5.832032c-.323166 0-.583984-.2608124-.583984-.5839844z" opacity=".2"/><path d="m23 22.416011v1c0 .323172.260818.583984.583984.583984h5.832032c.323165 0 .583984-.260812.583984-.583984v-1c0 .323172-.260819.583984-.583984.583984h-5.832032c-.323166 0-.583984-.260812-.583984-.583984z" opacity=".2"/><path d="m2.5839844 30.999995c-.3231661 0-.5839844-.260813-.5839844-.583984v-1c0 .323171.2608183.583984.5839844.583984h5.8320312c.3231648 0 .5839844-.260813.5839844-.583984v1c0 .323171-.2608196.583984-.5839844.583984z" opacity=".2"/><path d="m9.5839844 30.999995c-.3231662 0-.5839844-.260813-.5839844-.583984v-1c0 .323171.2608182.583984.5839844.583984h5.8320316c.323165 0 .583984-.260813.583984-.583984v1c0 .323171-.260819.583984-.583984.583984z" opacity=".2"/><path d="m16.583984 30.999995c-.323167 0-.583984-.260813-.583984-.583984v-1c0 .323171.260817.583984.583984.583984h5.832032c.323165 0 .583984-.260813.583984-.583984v1c0 .323171-.260819.583984-.583984.583984z" opacity=".2"/></svg>

<svg xmlns="http://www.w3.org/2000/svg" width="32" height="32" version="1.1" viewBox="0 0 32 32">
 <path d="m 23.58333,2.0000035 c -0.323165,0 -0.583332,0.260178 -0.583332,0.5833498 l 0,5.8333138 c 0,0.3231725 0.260167,0.5833275 0.583332,0.5833275 l 5.833326,0 c 0.323165,0 0.583333,-0.260155 0.583333,-0.5833275 l 0,-5.8333138 c 0,-0.3231718 -0.260168,-0.5833498 -0.583333,-0.5833498 z" style="fill:#ff4e40;stroke:#808080;stroke-width:0;stroke-linecap:round;stroke-linejoin:round"/>
 <path d="m 2.5833439,23.000005 c -0.3231661,0 -0.5833326,0.260179 -0.5833326,0.58335 l 0,5.833314 c 0,0.323173 0.2601665,0.583328 0.5833326,0.583328 l 5.833326,0 c 0.3231648,0 0.5833317,-0.260155 0.5833317,-0.583328 l 0,-5.833314 c 0,-0.323171 -0.2601669,-0.58335 -0.5833317,-0.58335 z" style="fill:#ffc34e;stroke:#808080;stroke-width:0;stroke-linecap:round;stroke-linejoin:round"/>
 <path style="fill:#ffc34e;stroke:#808080;stroke-width:0;stroke-linecap:round;stroke-linejoin:round" d="m 9.5833395,23.000005 c -0.3231662,0 -0.5833324,0.260179 -0.5833324,0.58335 l 0,5.833314 c 0,0.323173 0.2601662,0.583328 0.5833324,0.583328 l 5.8333265,0 c 0.323165,0 0.583332,-0.260155 0.583332,-0.583328 l 0,-5.833314 c 0,-0.323171 -0.260167,-0.58335 -0.583332,-0.58335 z"/>
 <path style="fill:#ffc34e;stroke:#808080;stroke-width:0;stroke-linecap:round;stroke-linejoin:round" d="m 16.583336,23.000005 c -0.323167,0 -0.583333,0.260179 -0.583333,0.58335 l 0,5.833314 c 0,0.323173 0.260166,0.583328 0.583333,0.583328 l 5.833326,0 c 0.323165,0 0.583332,-0.260155 0.583332,-0.583328 l 0,-5.833314 c 0,-0.323171 -0.260167,-0.58335 -0.583332,-0.58335 z"/>
 <path style="fill:#ffc34e;stroke:#808080;stroke-width:0;stroke-linecap:round;stroke-linejoin:round" d="m 2.583343,16.000002 c -0.3231661,0 -0.5833326,0.260179 -0.5833326,0.58335 l 0,5.833314 c 0,0.323173 0.2601665,0.583328 0.5833326,0.583328 l 5.8333262,0 c 0.3231648,0 0.5833317,-0.260155 0.5833317,-0.583328 l 0,-5.833314 c 0,-0.323171 -0.2601669,-0.58335 -0.5833317,-0.58335 z"/>
 <path d="m 9.5833388,16.000002 c -0.3231662,0 -0.583333,0.260179 -0.583333,0.58335 l 0,5.833314 c 0,0.323173 0.2601661,0.583328 0.583333,0.583328 l 5.8333252,0 c 0.323165,0 0.583333,-0.260155 0.583333,-0.583328 l 0,-5.833314 c 0,-0.323171 -0.260167,-0.58335 -0.583333,-0.58335 z" style="fill:#3b70df;stroke:#808080;stroke-width:0;stroke-linecap:round;stroke-linejoin:round"/>
 <path d="m 16.583335,16.000002 c -0.323167,0 -0.583333,0.260179 -0.583333,0.58335 l 0,5.833314 c 0,0.323173 0.260167,0.583328 0.583333,0.583328 l 5.833326,0 c 0.323165,0 0.583332,-0.260155 0.583332,-0.583328 l 0,-5.833314 c 0,-0.323171 -0.260167,-0.58335 -0.583332,-0.58335 z" style="fill:#3b70df;stroke:#808080;stroke-width:0;stroke-linecap:round;stroke-linejoin:round"/>
 <path style="fill:#ff4e40;stroke:#808080;stroke-width:0;stroke-linecap:round;stroke-linejoin:round" d="m 23.58333,16.000002 c -0.323165,0 -0.583332,0.260179 -0.583332,0.58335 l 0,5.833314 c 0,0.323173 0.260167,0.583328 0.583332,0.583328 l 5.833326,0 c 0.323165,0 0.583333,-0.260155 0.583333,-0.583328 l 0,-5.833314 c 0,-0.323171 -0.260168,-0.58335 -0.583333,-0.58335 z"/>
 <path style="fill:#3b70df;stroke:#808080;stroke-width:0;stroke-linecap:round;stroke-linejoin:round" d="m 2.5833439,9.0000064 c -0.3231661,0 -0.5833326,0.2601781 -0.5833326,0.5833499 l 0,5.8333137 c 0,0.323173 0.2601665,0.583328 0.5833326,0.583328 l 5.833326,0 c 0.3231648,0 0.5833317,-0.260155 0.5833317,-0.583328 l 0,-5.8333137 c 0,-0.3231718 -0.2601669,-0.5833499 -0.5833317,-0.5833499 z"/>
 <path d="m 9.5833395,9.0000064 c -0.3231662,0 -0.5833324,0.2601781 -0.5833324,0.5833499 l 0,5.8333137 c 0,0.323173 0.2601662,0.583328 0.5833324,0.583328 l 5.8333265,0 c 0.323165,0 0.583332,-0.260155 0.583332,-0.583328 l 0,-5.8333137 c 0,-0.3231718 -0.260167,-0.5833499 -0.583332,-0.5833499 z" style="fill:#3b70df;stroke:#808080;stroke-width:0;stroke-linecap:round;stroke-linejoin:round"/>
 <path style="fill:#ff4e40;stroke:#808080;stroke-width:0;stroke-linecap:round;stroke-linejoin:round" d="m 23.583332,9.0000064 c -0.323167,0 -0.583333,0.2601781 -0.583333,0.5833499 l 0,5.8333137 c 0,0.323173 0.260166,0.583328 0.583333,0.583328 l 5.833326,0 c 0.323165,0 0.583332,-0.260155 0.583332,-0.583328 l 0,-5.8333137 c 0,-0.3231718 -0.260167,-0.5833499 -0.583332,-0.5833499 z"/>
 <path style="fill:#ff4e40;stroke:#808080;stroke-width:0;stroke-linecap:round;stroke-linejoin:round" d="m 16.583335,2.0000035 c -0.323167,0 -0.583333,0.260178 -0.583333,0.5833498 l 0,5.8333138 c 0,0.3231725 0.260167,0.5833275 0.583333,0.5833275 l 5.833326,0 c 0.323165,0 0.583332,-0.260155 0.583332,-0.5833275 l 0,-5.8333138 c 0,-0.3231718 -0.260167,-0.5833498 -0.583332,-0.5833498 z"/>
 <path style="fill:#ffffff;stroke:#808080;stroke-width:0;stroke-linecap:round;stroke-linejoin:round;opacity:0.2" d="M 23.583984 2 C 23.260819 2 23 2.2608126 23 2.5839844 L 23 3.5839844 C 23 3.2608126 23.260819 3 23.583984 3 L 29.416016 3 C 29.739181 3 30 3.2608126 30 3.5839844 L 30 2.5839844 C 30 2.2608126 29.739181 2 29.416016 2 L 23.583984 2 z"/>
 <path style="stroke:#808080;stroke-width:0;stroke-linecap:round;stroke-linejoin:round;opacity:0.2" d="M 2.5839844 23 C 2.2608183 23 2 23.260813 2 23.583984 L 2 24.583984 C 2 24.260813 2.2608183 24 2.5839844 24 L 8.4160156 24 C 8.7391804 24 9 24.260813 9 24.583984 L 9 23.583984 C 9 23.260813 8.7391804 23 8.4160156 23 L 2.5839844 23 z"/>
 <path style="stroke:#808080;stroke-width:0;stroke-linecap:round;stroke-linejoin:round;opacity:0.2" d="M 9.5839844 23 C 9.2608182 23 9 23.260813 9 23.583984 L 9 24.583984 C 9 24.260813 9.2608182 24 9.5839844 24 L 15.416016 24 C 15.739181 24 16 24.260813 16 24.583984 L 16 23.583984 C 16 23.260813 15.739181 23 15.416016 23 L 9.5839844 23 z"/>
 <path style="stroke:#808080;stroke-width:0;stroke-linecap:round;stroke-linejoin:round;opacity:0.2" d="M 16.583984 23 C 16.260817 23 16 23.260813 16 23.583984 L 16 24.583984 C 16 24.260813 16.260817 24 16.583984 24 L 22.416016 24 C 22.739181 24 23 24.260813 23 24.583984 L 23 23.583984 C 23 23.260813 22.739181 23 22.416016 23 L 16.583984 23 z"/>
 <path style="stroke:#808080;stroke-width:0;stroke-linecap:round;stroke-linejoin:round;opacity:0.2" d="M 2.5839844 16 C 2.2608183 16 2 16.260813 2 16.583984 L 2 17.583984 C 2 17.260813 2.2608183 17 2.5839844 17 L 8.4160156 17 C 8.7391804 17 9 17.260813 9 17.583984 L 9 16.583984 C 9 16.260813 8.7391804 16 8.4160156 16 L 2.5839844 16 z"/>
 <path style="stroke:#808080;stroke-width:0;stroke-linecap:round;stroke-linejoin:round;opacity:0.2" d="M 9.5839844 16 C 9.2608182 16 9 16.260813 9 16.583984 L 9 17.583984 C 9 17.260813 9.2608182 17 9.5839844 17 L 15.416016 17 C 15.739182 17 16 17.260813 16 17.583984 L 16 16.583984 C 16 16.260813 15.739182 16 15.416016 16 L 9.5839844 16 z"/>
 <path style="fill:#ffffff;stroke:#808080;stroke-width:0;stroke-linecap:round;stroke-linejoin:round;opacity:0.2" d="M 16.583984 16 C 16.260817 16 16 16.260813 16 16.583984 L 16 17.583984 C 16 17.260813 16.260817 17 16.583984 17 L 22.416016 17 C 22.739181 17 23 17.260813 23 17.583984 L 23 16.583984 C 23 16.260813 22.739181 16 22.416016 16 L 16.583984 16 z"/>
 <path style="stroke:#808080;stroke-width:0;stroke-linecap:round;stroke-linejoin:round;opacity:0.2" d="M 23.583984 16 C 23.260819 16 23 16.260813 23 16.583984 L 23 17.583984 C 23 17.260813 23.260819 17 23.583984 17 L 29.416016 17 C 29.739181 17 30 17.260813 30 17.583984 L 30 16.583984 C 30 16.260813 29.739181 16 29.416016 16 L 23.583984 16 z"/>
 <path style="fill:#ffffff;stroke:#808080;stroke-width:0;stroke-linecap:round;stroke-linejoin:round;opacity:0.2" d="M 2.5839844 9 C 2.2608183 9 2 9.2608126 2 9.5839844 L 2 10.583984 C 2 10.260813 2.2608183 10 2.5839844 10 L 8.4160156 10 C 8.7391804 10 9 10.260813 9 10.583984 L 9 9.5839844 C 9 9.2608126 8.7391804 9 8.4160156 9 L 2.5839844 9 z"/>
 <path style="fill:#ffffff;stroke:#808080;stroke-width:0;stroke-linecap:round;stroke-linejoin:round;opacity:0.2" d="M 9.5839844 9 C 9.2608182 9 9 9.2608126 9 9.5839844 L 9 10.583984 C 9 10.260813 9.2608182 10 9.5839844 10 L 15.416016 10 C 15.739181 10 16 10.260813 16 10.583984 L 16 9.5839844 C 16 9.2608126 15.739181 9 15.416016 9 L 9.5839844 9 z"/>
 <path style="stroke:#808080;stroke-width:0;stroke-linecap:round;stroke-linejoin:round;opacity:0.2" d="M 23.583984 9 C 23.260817 9 23 9.2608126 23 9.5839844 L 23 10.583984 C 23 10.260813 23.260817 10 23.583984 10 L 29.416016 10 C 29.739181 10 30 10.260813 30 10.583984 L 30 9.5839844 C 30 9.2608126 29.739181 9 29.416016 9 L 23.583984 9 z"/>
 <path style="fill:#ffffff;stroke:#808080;stroke-width:0;stroke-linecap:round;stroke-linejoin:round;opacity:0.2" d="M 16.583984 2 C 16.260817 2 16 2.2608126 16 2.5839844 L 16 3.5839844 C 16 3.2608126 16.260817 3 16.583984 3 L 22.416016 3 C 22.739181 3 23 3.2608126 23 3.5839844 L 23 2.5839844 C 23 2.2608126 22.739181 2 22.416016 2 L 16.583984 2 z"/>
 <path style="opacity:0.2;stroke:#808080;stroke-width:0;stroke-linecap:round;stroke-linejoin:round" d="M 16 8.4160156 L 16 9.4160156 C 16 9.7391881 16.260818 10 16.583984 10 L 22.416016 10 C 22.739181 10 23 9.7391881 23 9.4160156 L 23 8.4160156 C 23 8.7391876 22.739181 9 22.416016 9 L 16.583984 9 C 16.260818 9 16 8.7391876 16 8.4160156 z"/>
 <path d="m 23,22.416011 0,1 c 0,0.323172 0.260818,0.583984 0.583984,0.583984 l 5.832032,0 C 29.739181,23.999995 30,23.739183 30,23.416011 l 0,-1 c 0,0.323172 -0.260819,0.583984 -0.583984,0.583984 l -5.832032,0 C 23.260818,22.999995 23,22.739183 23,22.416011 Z" style="opacity:0.2;stroke:#808080;stroke-width:0;stroke-linecap:round;stroke-linejoin:round"/>
 <path d="M 2.5839844,30.999995 C 2.2608183,30.999995 2,30.739182 2,30.416011 l 0,-1 c 0,0.323171 0.2608183,0.583984 0.5839844,0.583984 l 5.8320312,0 C 8.7391804,29.999995 9,29.739182 9,29.416011 l 0,1 c 0,0.323171 -0.2608196,0.583984 -0.5839844,0.583984 l -5.8320312,0 z" style="opacity:0.2;stroke:#808080;stroke-width:0;stroke-linecap:round;stroke-linejoin:round"/>
 <path d="M 9.5839844,30.999995 C 9.2608182,30.999995 9,30.739182 9,30.416011 l 0,-1 c 0,0.323171 0.2608182,0.583984 0.5839844,0.583984 l 5.8320316,0 C 15.739181,29.999995 16,29.739182 16,29.416011 l 0,1 c 0,0.323171 -0.260819,0.583984 -0.583984,0.583984 l -5.8320316,0 z" style="opacity:0.2;stroke:#808080;stroke-width:0;stroke-linecap:round;stroke-linejoin:round"/>
 <path d="M 16.583984,30.999995 C 16.260817,30.999995 16,30.739182 16,30.416011 l 0,-1 c 0,0.323171 0.260817,0.583984 0.583984,0.583984 l 5.832032,0 C 22.739181,29.999995 23,29.739182 23,29.416011 l 0,1 c 0,0.323171 -0.260819,0.583984 -0.583984,0.583984 l -5.832032,0 z" style="opacity:0.2;stroke:#808080;stroke-width:0;stroke-linecap:round;stroke-linejoin:round"/>
</svg>
